X:27
T:John Barton. Ru1.027
%%VWML:RutherfordVol1-2248-p14-0p14
Z:Transcription by Village Music Project, Steve Mansfield July 2015
F:http://www.village-music-project.org.uk/
F:http://www.vwml.org/record/RutherfordVol1/2248/p14
L:1/8
W:The first Man sets to the 2d Wo. & turn her .| The first Wo.
W:does the same with the 2d Man :| Cross over two Cous. .|.
W:Lead up to the Top & cast off :||: Hands round with the
W:Bottom Cou .|| Right & Left at Top :||
Q:1/4=90
N:NB Key signature as in Mss
N:NB2 Shown as G2 in Mss, amended to balance bar lengths
K:D
"NB" B | ce Ac | BdGc | BG dB | (3ABA Ac |
BG-GB | cAAf | gecB | G>A "NB2" G :|
|: d | BG ec | dBgd | BG dB | (3ABA Ad |
BG ec | dBge | d>fdB | (3GAG "NB2"G :|
|: d | gddg | addg | a>bag | fddf |
gfed | edcB | cAdB | (3GAG G :|
T:Scots Bonnet. Ru1.028
B:Rutherford's Country Dances Vol 1, 1756
Z:village music project, Steve Mansfield July 2015
M:C|
L:1/8
W:The first & 2d Cou. foot it all 4 & Hands across
W:half round .| The same back again :| The first
W:Man foot it to the 2d Wo. & turn her .|. The 1st
W:Wo. does the same with the 2d Man :||: Cross over
W:half Figure .|| Right Hand & Left :||
Q:2/4=75
K:G
G>AB>c d>Bc>B | A>Bc>d e/e/e e2 | G>AB>c e>fg>e | d>Bc>A G/G/G G2 :|
|: B>GA>B A>FE>D | B>GA>B E/E/E E2 | B>GA>B A>FE>D | d>Bc>A G/G/G G2 :|
|: g>dB>G g>dB>G | B>GA>B E/E/E E2 | g>dB>G g>dB>G | d>Bc>A G/G/G G2 :|
